icons/scalable/actions/thg-sync.svg

<?xml version="1.0" encoding="UTF-8" standalone="no"?>
<!-- Created with Inkscape (http://www.inkscape.org/) -->

<svg
   xmlns:dc="http://purl.org/dc/elements/1.1/"
   xmlns:cc="http://creativecommons.org/ns#"
   xmlns:rdf="http://www.w3.org/1999/02/22-rdf-syntax-ns#"
   xmlns:svg="http://www.w3.org/2000/svg"
   xmlns="http://www.w3.org/2000/svg"
   xmlns:xlink="http://www.w3.org/1999/xlink"
   xmlns:sodipodi="http://sodipodi.sourceforge.net/DTD/sodipodi-0.dtd"
   xmlns:inkscape="http://www.inkscape.org/namespaces/inkscape"
   width="32"
   height="32"
   id="svg2"
   sodipodi:version="0.32"
   inkscape:version="0.48.0 r9654"
   version="1.0"
   sodipodi:docname="thg-sync.svg"
   inkscape:output_extension="org.inkscape.output.svg.inkscape">
  <defs
     id="defs4">
    <linearGradient
       id="linearGradient3687">
      <stop
         style="stop-color:#94ec3e;stop-opacity:1;"
         offset="0"
         id="stop3689" />
      <stop
         style="stop-color:#67bd13;stop-opacity:1;"
         offset="1"
         id="stop3691" />
    </linearGradient>
    <linearGradient
       id="linearGradient3679">
      <stop
         style="stop-color:#4e9a06;stop-opacity:1;"
         offset="0"
         id="stop3681" />
      <stop
         style="stop-color:#4e9a06;stop-opacity:0;"
         offset="1"
         id="stop3683" />
    </linearGradient>
    <inkscape:perspective
       sodipodi:type="inkscape:persp3d"
       inkscape:vp_x="0 : 526.18109 : 1"
       inkscape:vp_y="0 : 1000 : 0"
       inkscape:vp_z="744.09448 : 526.18109 : 1"
       inkscape:persp3d-origin="372.04724 : 350.78739 : 1"
       id="perspective10" />
    <inkscape:perspective
       id="perspective2892"
       inkscape:persp3d-origin="372.04724 : 350.78739 : 1"
       inkscape:vp_z="744.09448 : 526.18109 : 1"
       inkscape:vp_y="0 : 1000 : 0"
       inkscape:vp_x="0 : 526.18109 : 1"
       sodipodi:type="inkscape:persp3d" />
    <radialGradient
       inkscape:collect="always"
       xlink:href="#linearGradient3687"
       id="radialGradient3693"
       cx="58.142857"
       cy="115.133"
       fx="58.142857"
       fy="115.133"
       r="10.5"
       gradientTransform="matrix(1,0,0,0.907947,-0.5,10.832062)"
       gradientUnits="userSpaceOnUse" />
    <radialGradient
       inkscape:collect="always"
       xlink:href="#linearGradient3687"
       id="radialGradient3697"
       gradientUnits="userSpaceOnUse"
       gradientTransform="matrix(-1,0,0,-0.907947,130.78571,205.03516)"
       cx="58.142857"
       cy="115.133"
       fx="58.142857"
       fy="115.133"
       r="10.5" />
    <radialGradient
       inkscape:collect="always"
       xlink:href="#linearGradient3687"
       id="radialGradient3025"
       gradientUnits="userSpaceOnUse"
       gradientTransform="matrix(1,0,0,0.907947,-0.5,10.832062)"
       cx="58.142857"
       cy="115.133"
       fx="58.142857"
       fy="115.133"
       r="10.5" />
    <radialGradient
       inkscape:collect="always"
       xlink:href="#linearGradient3687"
       id="radialGradient3027"
       gradientUnits="userSpaceOnUse"
       gradientTransform="matrix(-1,0,0,-0.907947,130.78571,205.03516)"
       cx="58.142857"
       cy="115.133"
       fx="58.142857"
       fy="115.133"
       r="10.5" />
  </defs>
  <sodipodi:namedview
     id="base"
     pagecolor="#ffffff"
     bordercolor="#666666"
     borderopacity="1.0"
     gridtolerance="10000"
     guidetolerance="10"
     objecttolerance="10"
     inkscape:pageopacity="0.0"
     inkscape:pageshadow="2"
     inkscape:zoom="11.313708"
     inkscape:cx="13.692004"
     inkscape:cy="14.55659"
     inkscape:document-units="px"
     inkscape:current-layer="layer1"
     showgrid="true"
     inkscape:snap-bbox="true"
     inkscape:snap-nodes="false"
     inkscape:window-width="1055"
     inkscape:window-height="972"
     inkscape:window-x="103"
     inkscape:window-y="0"
     inkscape:window-maximized="0">
    <inkscape:grid
       type="xygrid"
       id="grid2898"
       visible="true"
       enabled="true"
       empspacing="4"
       dotted="true" />
  </sodipodi:namedview>
  <metadata
     id="metadata7">
    <rdf:RDF>
      <cc:Work
         rdf:about="">
        <dc:format>image/svg+xml</dc:format>
        <dc:type
           rdf:resource="http://purl.org/dc/dcmitype/StillImage" />
        <dc:title>Sync</dc:title>
        <dc:date>2008-04-09</dc:date>
        <dc:creator>
          <cc:Agent>
            <dc:title>Peer Sommerlund</dc:title>
          </cc:Agent>
        </dc:creator>
        <dc:description>Sync icon for TortoiseHg</dc:description>
      </cc:Work>
    </rdf:RDF>
  </metadata>
  <g
     inkscape:label="Vector"
     inkscape:groupmode="layer"
     id="layer1"
     transform="translate(-49.142857,-92.933609)"
     style="display:inline">
    <g
       id="g3021"
       transform="matrix(0,1,-1,0,173.07647,42.790752)">
      <path
         sodipodi:nodetypes="ccccccc"
         d="m 49.642857,118.36672 0,-14 12,0 c -1.640531,1.53599 -3.191418,2.62376 -5,5 1.496229,3.26253 6.99588,12.51787 13,11 -4.522215,1.91285 -11.111931,5.7534 -18,-7 l -2,5"
         style="fill:url(#radialGradient3025);fill-opacity:1;fill-rule:evenodd;stroke:#4e9a06;stroke-width:1px;stroke-linecap:butt;stroke-linejoin:miter;stroke-opacity:1"
         id="path2900"
         inkscape:connector-curvature="0" />
      <path
         sodipodi:nodetypes="ccccccc"
         d="m 80.642857,97.500497 0,14.000003 -12,0 c 1.640531,-1.53599 3.191418,-2.62376 5,-5 -1.496229,-3.26253 -6.99588,-12.517873 -13,-11.000003 4.522215,-1.91285 11.111931,-5.7534 18,7.000003 l 2,-5.000003"
         style="fill:url(#radialGradient3027);fill-opacity:1;fill-rule:evenodd;stroke:#4e9a06;stroke-width:1px;stroke-linecap:butt;stroke-linejoin:miter;stroke-opacity:1;display:inline"
         id="path3695"
         inkscape:connector-curvature="0" />
    </g>
  </g>
</svg>

<?xml version="1.0" encoding="UTF-8" standalone="no"?>
<!-- Created with Inkscape (http://www.inkscape.org/) -->
<svg
   xmlns:dc="http://purl.org/dc/elements/1.1/"
   xmlns:cc="http://creativecommons.org/ns#"
   xmlns:rdf="http://www.w3.org/1999/02/22-rdf-syntax-ns#"
   xmlns:svg="http://www.w3.org/2000/svg"
   xmlns="http://www.w3.org/2000/svg"
   xmlns:xlink="http://www.w3.org/1999/xlink"
   xmlns:sodipodi="http://sodipodi.sourceforge.net/DTD/sodipodi-0.dtd"
   xmlns:inkscape="http://www.inkscape.org/namespaces/inkscape"
   width="32"
   height="32"
   id="svg2"
   sodipodi:version="0.32"
   inkscape:version="0.46"
   version="1.0"
   sodipodi:docname="sync.svg"
   inkscape:output_extension="org.inkscape.output.svg.inkscape">
  <defs
     id="defs4">
    <linearGradient
       id="linearGradient3687">
      <stop
         style="stop-color:#94ec3e;stop-opacity:1;"
         offset="0"
         id="stop3689" />
      <stop
         style="stop-color:#67bd13;stop-opacity:1;"
         offset="1"
         id="stop3691" />
    </linearGradient>
    <linearGradient
       id="linearGradient3679">
      <stop
         style="stop-color:#4e9a06;stop-opacity:1;"
         offset="0"
         id="stop3681" />
      <stop
         style="stop-color:#4e9a06;stop-opacity:0;"
         offset="1"
         id="stop3683" />
    </linearGradient>
    <inkscape:perspective
       sodipodi:type="inkscape:persp3d"
       inkscape:vp_x="0 : 526.18109 : 1"
       inkscape:vp_y="0 : 1000 : 0"
       inkscape:vp_z="744.09448 : 526.18109 : 1"
       inkscape:persp3d-origin="372.04724 : 350.78739 : 1"
       id="perspective10" />
    <inkscape:perspective
       id="perspective2892"
       inkscape:persp3d-origin="372.04724 : 350.78739 : 1"
       inkscape:vp_z="744.09448 : 526.18109 : 1"
       inkscape:vp_y="0 : 1000 : 0"
       inkscape:vp_x="0 : 526.18109 : 1"
       sodipodi:type="inkscape:persp3d" />
    <radialGradient
       inkscape:collect="always"
       xlink:href="#linearGradient3687"
       id="radialGradient3693"
       cx="58.142857"
       cy="115.133"
       fx="58.142857"
       fy="115.133"
       r="10.5"
       gradientTransform="matrix(1,0,0,0.907947,-0.5,10.832062)"
       gradientUnits="userSpaceOnUse" />
    <radialGradient
       inkscape:collect="always"
       xlink:href="#linearGradient3687"
       id="radialGradient3697"
       gradientUnits="userSpaceOnUse"
       gradientTransform="matrix(-1,0,0,-0.907947,130.78571,205.03516)"
       cx="58.142857"
       cy="115.133"
       fx="58.142857"
       fy="115.133"
       r="10.5" />
  </defs>
  <sodipodi:namedview
     id="base"
     pagecolor="#ffffff"
     bordercolor="#666666"
     borderopacity="1.0"
     gridtolerance="10000"
     guidetolerance="10"
     objecttolerance="10"
     inkscape:pageopacity="0.0"
     inkscape:pageshadow="2"
     inkscape:zoom="11.313708"
     inkscape:cx="13.692004"
     inkscape:cy="14.55659"
     inkscape:document-units="px"
     inkscape:current-layer="layer1"
     showgrid="true"
     inkscape:snap-bbox="true"
     inkscape:snap-nodes="false"
     inkscape:window-width="1055"
     inkscape:window-height="972"
     inkscape:window-x="162"
     inkscape:window-y="22">
    <inkscape:grid
       type="xygrid"
       id="grid2898"
       visible="true"
       enabled="true"
       empspacing="4"
       dotted="true" />
  </sodipodi:namedview>
  <metadata
     id="metadata7">
    <rdf:RDF>
      <cc:Work
         rdf:about="">
        <dc:format>image/svg+xml</dc:format>
        <dc:type
           rdf:resource="http://purl.org/dc/dcmitype/StillImage" />
        <dc:title>Sync</dc:title>
        <dc:date>2008-04-09</dc:date>
        <dc:creator>
          <cc:Agent>
            <dc:title>Peer Sommerlund</dc:title>
          </cc:Agent>
        </dc:creator>
        <dc:description>Sync icon for TortoiseHg</dc:description>
      </cc:Work>
    </rdf:RDF>
  </metadata>
  <g
     inkscape:label="Vector"
     inkscape:groupmode="layer"
     id="layer1"
     transform="translate(-49.142857,-92.933609)"
     style="display:inline">
    <path
       id="path2900"
       style="opacity:1;fill:url(#radialGradient3693);fill-opacity:1;fill-rule:evenodd;stroke:#4e9a06;stroke-width:1px;stroke-linecap:butt;stroke-linejoin:miter;stroke-opacity:1"
       d="M 49.642857,118.36672 L 49.642857,104.36672 L 61.642857,104.36672 C 60.002326,105.90271 58.451439,106.99048 56.642857,109.36672 C 58.139086,112.62925 63.638737,121.88459 69.642857,120.36672 C 65.120642,122.27957 58.530926,126.12012 51.642857,113.36672 L 49.642857,118.36672"
       sodipodi:nodetypes="ccccccc" />
    <path
       id="path3695"
       style="opacity:1;fill:url(#radialGradient3697);fill-opacity:1;fill-rule:evenodd;stroke:#4e9a06;stroke-width:1px;stroke-linecap:butt;stroke-linejoin:miter;stroke-opacity:1;display:inline"
       d="M 80.642857,97.500497 L 80.642857,111.5005 L 68.642857,111.5005 C 70.283388,109.96451 71.834275,108.87674 73.642857,106.5005 C 72.146628,103.23797 66.646977,93.982627 60.642857,95.500497 C 65.165072,93.587647 71.754788,89.747097 78.642857,102.5005 L 80.642857,97.500497"
       sodipodi:nodetypes="ccccccc" />
  </g>
</svg>
